UI/forms/images/settings/general.svg

<?xml version="1.0" encoding="UTF-8" standalone="no"?>
<svg
   xmlns:dc="http://purl.org/dc/elements/1.1/"
   xmlns:cc="http://creativecommons.org/ns#"
   xmlns:rdf="http://www.w3.org/1999/02/22-rdf-syntax-ns#"
   xmlns:svg="http://www.w3.org/2000/svg"
   xmlns="http://www.w3.org/2000/svg"
   xmlns:sodipodi="http://sodipodi.sourceforge.net/DTD/sodipodi-0.dtd"
   xmlns:inkscape="http://www.inkscape.org/namespaces/inkscape"
   width="16"
   height="16"
   viewBox="0 0 32 32"
   version="1.1"
   id="svg5"
   sodipodi:docname="general2.svg"
   inkscape:version="0.92.3 (2405546, 2018-03-11)">
  <metadata
     id="metadata11">
    <rdf:RDF>
      <cc:Work
         rdf:about="">
        <dc:format>image/svg+xml</dc:format>
        <dc:type
           rdf:resource="http://purl.org/dc/dcmitype/StillImage" />
        <dc:title></dc:title>
      </cc:Work>
    </rdf:RDF>
  </metadata>
  <defs
     id="defs9" />
  <sodipodi:namedview
     pagecolor="#ffffff"
     bordercolor="#666666"
     borderopacity="1"
     objecttolerance="10"
     gridtolerance="10"
     guidetolerance="10"
     inkscape:pageopacity="0"
     inkscape:pageshadow="2"
     inkscape:window-width="1920"
     inkscape:window-height="998"
     id="namedview7"
     showgrid="false"
     inkscape:zoom="5.53125"
     inkscape:cx="21.333333"
     inkscape:cy="21.333333"
     inkscape:window-x="0"
     inkscape:window-y="0"
     inkscape:window-maximized="1"
     inkscape:current-layer="svg5" />
  <g
     id="surface1"
     style="fill:#000000"
     transform="matrix(1,0,0,1.1456034,0,-2.3279489)">
    <path
       style="fill:#000000;fill-opacity:1;fill-rule:evenodd;stroke:none"
       d="M 32,17.542969 V 14.339844 L 27.566406,13.058594 26.539062,10.878906 28.546875,7.203125 25.964844,4.941406 21.828125,6.761719 19.335938,5.859375 17.761719,2.019531 H 14.101562 L 12.664062,5.898438 10.125,6.796875 5.921875,5.042969 3.335938,7.296875 l 2.082031,3.625 -1.03125,2.179687 L 0,14.457031 v 3.183594 l 4.433594,1.28125 1.027344,2.179687 -2.007813,3.679688 2.582031,2.261719 4.136719,-1.824219 2.492187,0.902344 1.574219,3.835937 H 17.875 l 1.4375,-3.878906 2.539062,-0.898437 4.207032,1.761718 2.582031,-2.261718 -2.101563,-3.621094 1.074219,-2.179688 L 32,17.5 Z M 16,22 c -3.792969,0 -6.855469,-2.679688 -6.855469,-6 0,-3.320312 3.0625,-6 6.855469,-6 3.792969,0 6.855469,2.679688 6.855469,6 0,3.320312 -3.0625,6 -6.855469,6 z m 0,0"
       id="path2"
       inkscape:connector-curvature="0" />
  </g>
</svg>

<svg width="16" height="16" version="1.1" viewBox="0 0 32 32" xmlns="http://www.w3.org/2000/svg"><g transform="matrix(1 0 0 1.1456 0 -2.3279)" fill="#000000"><path d="m32 17.543v-3.2031l-4.4336-1.2812-1.0273-2.1797 2.0078-3.6758-2.582-2.2617-4.1367 1.8203-2.4922-0.90234-1.5742-3.8398h-3.6602l-1.4375 3.8789-2.5391 0.89844-4.2031-1.7539-2.5859 2.2539 2.082 3.625-1.0312 2.1797-4.3867 1.3555v3.1836l4.4336 1.2812 1.0273 2.1797-2.0078 3.6797 2.582 2.2617 4.1367-1.8242 2.4922 0.90234 1.5742 3.8359h3.6367l1.4375-3.8789 2.5391-0.89844 4.207 1.7617 2.582-2.2617-2.1016-3.6211 1.0742-2.1797 4.3867-1.3789zm-16 4.457c-3.793 0-6.8555-2.6797-6.8555-6s3.0625-6 6.8555-6 6.8555 2.6797 6.8555 6-3.0625 6-6.8555 6z" fill="#000000" fill-rule="evenodd"/></g></svg>
